docs/.gitbook/assets/icon-save-document-16@dark.svg

<svg width="32" height="32" viewBox="0 0 16 16" fill="none" xmlns="http://www.w3.org/2000/svg">
<rect x="0" y="0" width="16" height="16" fill="#181c1f"/>
<path fill-rule="evenodd" clip-rule="evenodd" d="M4.75 2.5C4.05964 2.5 3.5 3.05964 3.5 3.75V12.25C3.5 12.9404 4.05964 13.5 4.75 13.5H7.25C7.66421 13.5 8 13.8358 8 14.25C8 14.6642 7.66421 15 7.25 15H4.75C3.23122 15 2 13.7688 2 12.25V3.75C2 2.23122 3.23122 1 4.75 1H8.58579C9.04992 1 9.49503 1.18437 9.82322 1.51256L13.7286 5.41789C13.9024 5.5917 14 5.82743 14 6.07322C14 6.58507 13.5851 7 13.0732 7H9.75C8.7835 7 8 6.2165 8 5.25V2.5H4.75ZM9.5 3.31066V5.25C9.5 5.38807 9.61193 5.5 9.75 5.5H11.6893L9.5 3.31066ZM12 9C12.4142 9 12.75 9.33579 12.75 9.75V12.8486L13.834 12.126C14.1786 11.8962 14.6443 11.9893 14.874 12.334C15.1038 12.6786 15.0107 13.1443 14.666 13.374L12.9707 14.5042C12.3829 14.8961 11.6171 14.8961 11.0293 14.5042L9.33397 13.374C8.98933 13.1443 8.8962 12.6786 9.12596 12.334C9.35573 11.9893 9.82138 11.8962 10.166 12.126L11.25 12.8486V9.75C11.25 9.33579 11.5858 9 12 9Z" fill="#fff"/>
</svg>

<svg xmlns="http://www.w3.org/2000/svg" width="32" height="32" fill="none" viewBox="0 0 16 16"><path fill="#181c1f" d="M0 0h16v16H0z"/><path fill="#fff" fill-rule="evenodd" d="M4.75 2.5c-.69 0-1.25.56-1.25 1.25v8.5c0 .69.56 1.25 1.25 1.25h2.5a.75.75 0 0 1 0 1.5h-2.5A2.75 2.75 0 0 1 2 12.25v-8.5A2.75 2.75 0 0 1 4.75 1h3.836c.464 0 .909.184 1.237.513l3.906 3.905A.927.927 0 0 1 13.073 7H9.75A1.75 1.75 0 0 1 8 5.25V2.5zm4.75.81v1.94c0 .138.112.25.25.25h1.94zM12 9a.75.75 0 0 1 .75.75v3.099l1.084-.723a.75.75 0 1 1 .832 1.248l-1.695 1.13a1.75 1.75 0 0 1-1.942 0l-1.695-1.13a.75.75 0 1 1 .832-1.248l1.084.723V9.75A.75.75 0 0 1 12 9" clip-rule="evenodd"/></svg>
